!!!!SEGMENT: pl-sa--103-a-iii-3--001_anonim--pasterze-przy-trzodzie.krn
!!!cenid: 17xx:1735
!!!COM: Anonim
!!!COM-rismID: pe30004985
!!!CDT:
!!!CNT:
!!!OTL: Pasterze przy trzodzie
!!!PDT:
!!!AGN: Sacred
!!!SMS-siglum: PL-SA
!!!SMS-shelfmark: 103/A III 3
!!!SMS-shelfwork: 001 W
!!!SMS-variant:
!!!SMS-altvar:
!!!NIFC-rismSourceID: 1001069970
!!!NIFC-islandoraID:
!!!URL-pdf-islandora:
!!!URL-scan: https://bc.bdsandomierz.pl/dlibra/publication/1459/edition/1427/content @EN{Scan in the Sandomierz Diocese Digital Library} @PL{Skany w portalu Cyfrowa Biblioteka Diecezjalna w Sandomierzu}
!!!ONB-nifc: UWAGA: części: 1. Pasterze przy trzodzie, 2. A ja kozak, 3. A my dziady
!!!AIN: 1 bass 2 soprn 2 violn
!!!key:
**kern	**fba	**kern	**kern	**dynam	**kern	**text	**kern	**text	**kern	**text
*part6	*	*part5	*part4	*part4	*part3	*part3	*part2	*part2	*part1	*part1
*staff6	*	*staff5	*staff4	*	*staff3	*staff3	*staff2	*staff2	*staff1	*staff1
*I"Fundamento.	*	*I"Violino 2do.	*I"Violino Primo.	*	*I"Baſso.	*	*I"Canto Secundo.	*	*I"Canto Primo.	*
*I'bc	*	*I'vl 2	*I'vl 1	*	*I'B	*	*I'S 2	*	*I'S 1	*
*	*	*Ivioln	*Ivioln	*	*Ibass	*	*Isoprn	*	*Isoprn	*
*	*	*ICstr	*ICstr	*	*ICvox	*	*ICvox	*	*ICvox	*
*IGcont	*	*	*	*	*IGsolo	*	*IGsolo	*	*IGsolo	*
*clefF4	*	*clefG2	*clefG2	*	*clefF4	*	*clefC1	*	*clefC1	*
*k[]	*	*k[]	*k[]	*	*k[]	*	*k[]	*	*k[]	*
*C:	*	*C:	*C:	*	*C:	*	*C:	*	*C:	*
*M3/4	*	*M3/4	*M3/4	*	*M3/4	*	*M3/4	*	*M3/4	*
=1	=1	=1	=1	=1	=1	=1	=1	=1	=1	=1
*all\right	*	*all\right	*all\right	*	*all\right	*	*	*all\right	*all/right	*
!LO:TX:b:i:t=Pasterze.	!	!LO:TX:b:t=Pasterze.	!LO:TX:b:t=Pasterze.	!	!LO:TX:a:t=Moderato.	!	!LO:TX:a:t=Moderato.	!	!LO:TX:a:t=Moderato.	!
!LO:TX:a:i:t=Moderato	!	!LO:TX:a:t=Moderato	!LO:TX:a:t=Moderato.	!	!	!	!	!	!LO:TX:t=P:problem=4\, 8\middle or right or left&colon; global	!
!	!	!	!	!	!	!	!	!	!.	!
4C/	.	4cc\	4cc\	.	4C/	Pa-	4cc\	Pa-	4cc\	Pa-
!	!	!LO:TX:t=P:problem=mixed beam	!	!	!	!	!	!	!	!
4E/	.	8cc\L	(8ee\L	.	4E\	-ste-	4ee\	-ste-	8ee\L	-ste-
.	.	8e/J	8cc\	.	.	.	.	.	8cc\J	.
4C/	.	8cc\L	8ee\)	.	4G\	-rze	4cc\	-rze	8ee\L	-rze
.	.	8ee\J	8gg\J	.	.	.	.	.	8cc\J	.
=2	=2	=2	=2	=2	=2	=2	=2	=2	=2	=2
4G\	.	4dd\	4ff\	.	4G\	przy	4dd\	przy	4ff\	przy
4GG/	.	(8b\L	8dd\L	.	4G\	trzo-	4b\	trzo-	8dd\L	trzo-
.	.	8g\	8b\J	.	.	.	.	.	8b\J	.
4C/	.	8cc\	4cc\	.	8E\L	-dzie	4cc\	-dzie	4cc\	-dzie
.	.	8ee\J)	.	.	8C\J	.	.	.	.	.
=3	=3	=3	=3	=3	=3	=3	=3	=3	=3	=3
2.C/	.	4cc\	4cc\	.	4C/	ia-	4cc\	ia-	4cc\	ia-
!	!	!LO:TX:t=P:problem=mixed beam	!	!	!	!	!	!	!	!
.	.	8cc\L	(8ee\L	.	4E\	-snosc	4ee\	-snosc	8ee\L	-snosć
.	.	8e/J	8cc\	.	.	.	.	.	8cc\J	.
.	.	8cc\L	8ee\)	.	4G\	wi-	4cc\	wi-	8ee\L	wi-
.	.	8ee\J	8gg\J	.	.	.	.	.	8cc\J	.
=4	=4	=4	=4	=4	=4	=4	=4	=4	=4	=4
4G\	.	4dd\	4ff\	.	4G\	-dzie-	4dd\	-dzie-	4ff\	-dzie-
*	*	*2\right	*2\right	*	*2\right	*	*2\right	*	*2\right	*
2GG/	.	2b\	2dd\	.	2G\	-li	2b\	-li	2dd\	-li
=5	=5	=5	=5	=5	=5	=5	=5	=5	=5	=5
!	!	!	!	!LO:DY:a:t=Po.	!	!	!	!	!	!
4C/	.	4cc\	4cc\	p	(4C/	zwiel-	2cc\	z_wiel-	2cc\	-z_wiel-
!	!	!LO:TX:t=P:problem=mixed beam	!	!	!	!	!	!	!	!
4E/	.	8cc\L	(8ee\L	.	4E\)	.	.	.	.	.
.	.	8e/J	8cc\	.	.	.	.	.	.	.
4C/	.	8cc\L	8ee\)	.	4G\	-ką	4cc\	-Ką	4ee\	-Ką
.	.	8ee\J	8gg\J	.	.	.	.	.	.	.
=6	=6	=6	=6	=6	=6	=6	=6	=6	=6	=6
4G\	.	4dd\	4ff\	.	4G\	pil-	4dd\	pil-	4ff\	pil-
4GG/	.	8b\L	8dd\L	.	4G\	-no-	4b\	-no-	8dd\L	-no-
.	.	8g\J	8b\	.	.	.	.	.	8b\J	.
4C/	.	4cc\	8cc\	.	8E\L	-scią	4cc\	-scią	4ee\	-scią
.	.	.	8ee\J	.	8C\J	.	.	.	.	.
!	!	!	!LO:LB:g=original	!	!	!	!LO:LB:g=original	!	!LO:LB:g=original	!
=7	=7	=7	=7	=7	=7	=7	=7	=7	=7	=7
2.C/	.	4cc\	4cc\	.	4C/	do	4cc\	do	4cc\	do
!	!	!LO:TX:t=P:problem=mixed beam	!	!	!	!	!	!	!	!
.	.	8cc\L	(8ee\L	.	4E\	stay-	4ee\	ſtay-	8ee\L	ſtay-
.	.	8e/J	8cc\	.	.	.	.	.	8cc\J	.
.	.	8cc\L	8ee\)	.	4G\	-ni	4cc\	-ni	8ee\L	-ni
.	.	8ee\J	8gg\J	.	.	.	.	.	8cc\J	.
!	!	!LO:LB:g=original	!	!	!LO:LB:g=original	!	!	!	!	!
=8	=8	=8	=8	=8	=8	=8	=8	=8	=8	=8
2.C/	.	8dd\L	(8ff\L	.	8G\	bie-	8dd\	bie-	8ff\	bie-
.	.	8b\J	8dd\J)	.	8G\	-ze-	8b\	-ze-	8dd\	-ze-
.	.	.	4qqdd/	.	.	.	.	.	.	.
.	.	2cc\	2ee\	.	2C/	-li	2cc\	-li	2ee\	-li
=9	=9	=9	=9	=9	=9	=9	=9	=9	=9	=9
2C/	.	4ee\	4gg\	.	2c\	gdy	2cc\	gdy	2ee\	gdy
.	.	8ee\L	8gg\L	.	.	.	.	.	.	.
.	.	8dd\J	8ff\J	.	.	.	.	.	.	.
4E\	.	4ee\	4gg\	.	4c\	uy-	4cc\	uy-	4ee\	uy-
=10	=10	=10	=10	=10	=10	=10	=10	=10	=10	=10
4D/	.	4ff\	4aa\	.	(4d\	-zrze-	4dd\	-zrze-	4ff\	-zrze-
4BB/	.	2dd\	2ff\	.	4B\)	.	2b\	-li	2dd\	-li
4GG/	.	.	.	.	4G\	-li	.	.	.	.
!LO:LB:g=original	!	!	!	!	!	!	!	!	!	!
=11	=11	=11	=11	=11	=11	=11	=11	=11	=11	=11
2C/	.	4ee\	4gg\	.	2c\	wſtay-	2cc\	w_ſtay-	2ee\	w_stay-
.	.	8ee\L	8gg\L	.	.	.	.	.	.	.
.	.	8dd\J	8ff\J	.	.	.	.	.	.	.
4E\	.	4ee\	4gg\	.	4c\	-ni	4cc\	-ni	4ee\	-ni
=12	=12	=12	=12	=12	=12	=12	=12	=12	=12	=12
4D/	.	4ff\	4aa\	.	(4d\	Pa-	4dd\	Pa-	4ff\	Pa-
4BB/	.	2dd\	2ff\	.	4B\)	.	2b\	-na	2dd\	-na
4GG/	.	.	.	.	4G\	-na	.	.	.	.
=13	=13	=13	=13	=13	=13	=13	=13	=13	=13	=13
4G\	.	4g/	4dd\	.	2G\	rze-	2g\	prę-	2g\	rze-
4B\	.	8b/L	(8b\L	.	.	.	.	.	.	.
.	.	8g/	8g\	.	.	.	.	.	.	.
4G\	.	8b/	8b\)	.	4B\	-kli	4g\	-dzey	4b\	-kli
.	.	8b/J	8dd\J	.	.	.	.	.	.	.
!	!	!	!	!	!	!	!LO:LB:g=original	!	!LO:LB:g=original	!
=14	=14	=14	=14	=14	=14	=14	=14	=14	=14	=14
4B\	.	4b\	4dd\	.	4B\	idz-	4b\	idz-	4dd\	idz-
*2\right	*	*	*	*	*	*	*	*	*	*
2G\	7	2dd\	2ff\	.	2G\	-my	2dd\	-my	2ff\	-my
!	!	!	!LO:LB:g=original	!	!	!	!	!	!	!
=15	=15	=15	=15	=15	=15	=15	=15	=15	=15	=15
4C/	.	2cc\	2ee\	.	4C/	po-	2cc\	po	2ee\	po
4E\	.	.	.	.	4E\	.	.	.	.	.
4F\	.	8f/L	8dd\L	.	4F\	-Ba-	(8dd\L	Ba-	(8dd\L	Ba-
.	.	8e/J	8cc\J	.	.	.	8cc\J)	.	8cc\J)	.
=16	=16	=16	=16	=16	=16	=16	=16	=16	=16	=16
4G\	.	8d/L	8b\L	.	4G\	-ra-	4b\	-ra-	8b\L	-ra-
.	.	8f/J	8dd\J	.	.	.	.	.	8dd\J	.
4C/	.	4e/	4cc\	.	4C/	-na	4cc\	-na	4cc\	-na
4r	.	4r	4r	.	4r	.	4r	.	4r	.
!	!	!	!	!	!LO:LB:g=original	!	!	!	!	!
=17	=17	=17	=17	=17	=17	=17	=17	=17	=17	=17
4G\	.	4g/	4g/	.	2G\	rze-	2g\	rze-	2g\	rze-
4B\	.	8b/L	(8b/L	.	.	.	.	.	.	.
.	.	8g/	8g/	.	.	.	.	.	.	.
4G\	.	8b/	8b/)	.	4B\	-kli	4g\	-Kli	4b\	-kli
.	.	8b/J	8dd/J	.	.	.	.	.	.	.
!	!	!LO:LB:g=original	!	!	!	!	!	!	!	!
=18	=18	=18	=18	=18	=18	=18	=18	=18	=18	=18
4B\	.	4b\	4dd\	.	4B\	idz-	4b\	podz-	4dd\	idz-
2G\	.	2dd\	2ff\	.	2G\	-my	2dd\	-my	2ff\	-my
=19	=19	=19	=19	=19	=19	=19	=19	=19	=19	=19
4C\	.	2cc\	2ee\	.	(4C/	po	2cc\	po	2ee\	po
4E\	.	.	.	.	4E\)	.	.	.	.	.
4F\	.	8f/L	8dd\L	.	4F\	Ba-	8dd\L	Ba-	8dd\L	Ba-
.	.	8e/J	8cc\J	.	.	.	8cc\J	.	8cc\J	.
=20	=20	=20	=20	=20	=20	=20	=20	=20	=20	=20
4G\	.	8d/L	8b\L	.	4G\	-ra-	4b\	-ra-	8b\L	-ra-
.	.	8f/J	8dd\J	.	.	.	.	.	8dd\J	.
4C/	.	4e/	4cc\	.	4C/	-na	4cc\	-na	4cc\	-na
4r	.	4r	4r	.	4r	.	4r	.	4r	.
!LO:LB:g=original	!	!	!	!	!	!	!LO:LB:g=original	!	!LO:LB:g=original	!
=21	=21	=21	=21	=21	=21	=21	=21	=21	=21	=21
2.C/	.	4ee\	4gg\	.	0.r	.	0.r	.	0.r	.
.	.	4ee\	4gg\	.	.	.	.	.	.	.
.	.	4ee\	4gg\	.	.	.	.	.	.	.
=22	=22	=22	=22	=22	=22	=22	=22	=22	=22	=22
2.GG/	.	4ff\	4aa\	.	.	.	.	.	.	.
.	.	2dd\	2ff\	.	.	.	.	.	.	.
=23	=23	=23	=23	=23	=23	=23	=23	=23	=23	=23
2.C/	.	4ee\	4gg\	.	.	.	.	.	.	.
.	.	2cc\	2ee\	.	.	.	.	.	.	.
!	!	!	!LO:LB:g=original	!	!	!	!	!	!	!
=24	=24	=24	=24	=24	=24	=24	=24	=24	=24	=24
2.C/	.	4ee\	4gg\	.	.	.	.	.	.	.
.	.	4ee\	4gg\	.	.	.	.	.	.	.
.	.	4ee\	4gg\	.	.	.	.	.	.	.
=25	=25	=25	=25	=25	=25	=25	=25	=25	=25	=25
2.G\	.	4ff\	4aa\	.	0.r	.	0.r	.	0.r	.
.	.	2dd\	2ff\	.	.	.	.	.	.	.
=26	=26	=26	=26	=26	=26	=26	=26	=26	=26	=26
2.C/	.	4ee\	4gg\	.	.	.	.	.	.	.
.	.	2cc\	2ee\	.	.	.	.	.	.	.
=27	=27	=27	=27	=27	=27	=27	=27	=27	=27	=27
2.C/	.	2e/	2cc\	.	.	.	.	.	.	.
.	.	8cc\L	(8ee\L	.	.	.	.	.	.	.
.	.	8ee\J	8gg\J)	.	.	.	.	.	.	.
=28	=28	=28	=28	=28	=28	=28	=28	=28	=28	=28
4G\	.	4dd\	4ff\	.	.	.	.	.	.	.
4GG/	.	8b\L	8dd\L	.	.	.	.	.	.	.
.	.	8g\J	8b\J	.	.	.	.	.	.	.
4C/	.	4e/	4cc\	.	.	.	.	.	.	.
!	!	!LO:LB:g=original	!	!	!	!	!	!	!	!
=29	=29	=29	=29	=29	=29	=29	=29	=29	=29	=29
2.C/	.	2e/	2cc\	.	0.r	.	0.r	.	0.r	.
.	.	8cc\L	8ee\L	.	.	.	.	.	.	.
.	.	8ee\J	8gg\J	.	.	.	.	.	.	.
=30	=30	=30	=30	=30	=30	=30	=30	=30	=30	=30
2.C/	.	8dd\L	8ff\L	.	.	.	.	.	.	.
.	.	8b\J	8dd\J	.	.	.	.	.	.	.
.	.	2cc\	2ee\	.	.	.	.	.	.	.
=31	=31	=31	=31	=31	=31	=31	=31	=31	=31	=31
2.C/	.	2cc\	2cc\	.	.	.	.	.	.	.
.	.	8cc\L	8ee\L	.	.	.	.	.	.	.
.	.	8ee\J	8gg\J	.	.	.	.	.	.	.
=32	=32	=32	=32	=32	=32	=32	=32	=32	=32	=32
4G\	7	4dd\	4ff\	.	.	.	.	.	.	.
4GG/	.	8b\L	8dd\L	.	.	.	.	.	.	.
.	.	8g\J	8b\J	.	.	.	.	.	.	.
4C/	.	4e/	4cc\	.	.	.	.	.	.	.
!	!	!	!LO:LB:g=original	!	!	!	!	!	!	!
=33	=33	=33	=33	=33	=33	=33	=33	=33	=33	=33
2.C/	.	2e/	2cc\	.	1.r	.	1.r	.	1.r	.
.	.	8cc\L	8ee\L	.	.	.	.	.	.	.
.	.	8ee\J	8gg\J	.	.	.	.	.	.	.
=34	=34	=34	=34	=34	=34	=34	=34	=34	=34	=34
2.C/	.	8dd\L	8ff\L	.	.	.	.	.	.	.
.	.	16b\L	8dd\J	.	.	.	.	.	.	.
.	.	16g\JJ	.	.	.	.	.	.	.	.
.	.	2e/	2ee\	.	.	.	.	.	.	.
=35	=35	=35	=35	=35	=35	=35	=35	=35	=35	=35
!	!	!	!LO:TX:a:t=g	!	!	!	!	!	!	!
4G\	.	4gg\	4gg\	.	4G\	Ty	4g\	Ty	4g\	Ty
4B\	.	4gg\	4bb\	.	4B\	Bar-	4b\	Bar-	4b\	Bar-
4G\	.	4bb\	4ddd\	.	4G\	-tek	4b\	-teK	4dd\	-tek
!LO:LB:g=original	!	!	!	!	!	!	!	!	!	!
=36	=36	=36	=36	=36	=36	=36	=36	=36	=36	=36
4D\	.	4aa\	4ccc\	.	4F#X\	Kieł-	4a\	Kieł-	4cc\	Kieł-
4DD/	.	8ff#X\L	8aa\L	.	4D\	-ba-	8f#X\L	-ba-	8a\L	-ba-
.	.	8aa\J	8ccc\J	.	.	.	8a\J	.	8cc\J	.
4GG/	.	4gg\	4bb\	.	4G\	-sę	4g\	-sę	4b\	-sę
=37	=37	=37	=37	=37	=37	=37	=37	=37	=37	=37
4GG/	.	4gg\	4gg\	.	4G\	za-	4g\	za-	4g\	za-
4BB/	.	4gg\	4bb\	.	4B\	-wie-	4b\	-wie-	4b\	-wie-
4GG/	.	4bb\	4ddd\	.	4G\	-siſz	4b\	-siſz	4dd\	-siſz
!	!	!LO:LB:g=original	!	!	!LO:LB:g=original	!	!	!	!	!
=38	=38	=38	=38	=38	=38	=38	=38	=38	=38	=38
4D\	7 #	8aa\L	8ccc\L	.	8F#X\	na	8a\	na	8cc\	na
.	.	8ff#X\J	8aa\J	.	8D\	ra-	8f#X/	ra-	8a\	ra-
2G\	.	2gg\	2bb\	.	2G\	-mię	2g\	-mię	2b\	-mię
=39	=39	=39	=39	=39	=39	=39	=39	=39	=39	=39
4G\	.	4g/	4g/	.	4G\	a	4g\	a	4g\	a
4B\	.	4g/	8b\L	.	4B\	ty	4b\	ty	4b\	ty
.	.	.	8g\	.	.	.	.	.	.	.
4G\	.	4b\	8b\	.	4G\	zas	4b\	zas	4dd\	zas
.	.	.	8dd\J	.	.	.	.	.	.	.
!	!	!	!	!	!	!	!LO:LB:g=original	!	!LO:LB:g=original	!
=40	=40	=40	=40	=40	=40	=40	=40	=40	=40	=40
4D\	#	4a/	4cc\	.	4F#X\	wes	4a\	wes	4cc\	wes
4DD/	.	8f#X/L	8a\L	.	4D\	chle-	8f#X/L	chle-	(8a\L	chle-
.	.	8a/J	8cc\J	.	.	.	8a/J	.	8cc\J)	.
4GG/	.	4g/	4b\	.	4G\	-ba	4g/	-ba	4b\	-ba
!	!	!	!LO:LB:g=original	!	!	!	!	!	!	!
=41	=41	=41	=41	=41	=41	=41	=41	=41	=41	=41
4G\	.	4g/	4g/	.	4G\	bo-	4g\	bo-	4g\	bo-
4B\	.	8b/L	(8b\L	.	4B\	-che-	4b\	-che-	4b\	-che-
.	.	8g/J	8g\	.	.	.	.	.	.	.
4G\	.	8b\L	8b\)	.	4G\	-nek	4b\	-nek	4dd\	-nek.
.	.	8dd\J	8dd\J	.	.	.	.	.	.	.
=42	=42	=42	=42	=42	=42	=42	=42	=42	=42	=42
4D\	7 #	8a/L	8cc\L	.	8F#X\	A-	8a\	A-	8cc\	A-
.	.	8f#X/J	8a\J	.	8D\	-da-	8f#X/	-da-	8a\	-da-
4G\	.	4g/	4b\	.	4G\	-mie	4g\	-mie	4b\	-mie
4r	.	4r	4r	.	4r	.	4r	.	4r	.
=43	=43	=43	=43	=43	=43	=43	=43	=43	=43	=43
4G\	.	4g/	4g/	.	4G\	A	4g\	a	4g\	a
4B\	.	4g/	(8b\L	.	4B\	ty	4b\	ty	4b\	ty
.	.	.	8g\	.	.	.	.	.	.	.
4G\	.	4b/	8b\)	.	4G\	zas	4b\	zas	4dd\	zas
.	.	.	8dd\J	.	.	.	.	.	.	.
!	!	!	!	!	!LO:LB:g=original	!	!	!	!	!
=44	=44	=44	=44	=44	=44	=44	=44	=44	=44	=44
4D\	#	4a/	4cc\	.	4F#X\	wes	4a\	wes	4cc\	wes
4DD/	.	8f#X/L	8a\L	.	4D\	chle-	8f#X\L	chle-	(8a\L	chle-
.	.	8a/J	8cc\J	.	.	.	8a\J	.	8cc\J)	.
4GG/	.	4g/	4b\	.	4G\	-ba	4g\	-ba	4b\	-ba
!	!	!	!	!	!	!	!LO:LB:g=original	!	!	!
=45	=45	=45	=45	=45	=45	=45	=45	=45	=45	=45
4G\	.	4g/	4g/	.	4G\	bo-	4g\	bo-	4g\	bo-
4B\	.	(8b\L	(8b\L	.	4B\	-che-	4b\	-che-	4b\	-che-
.	.	8g\	8g\	.	.	.	.	.	.	.
4G\	.	8b\)	8b\)	.	4G\	-nek	4b\	-nek	4dd\	-nek
.	.	8dd\J	8dd\J	.	.	.	.	.	.	.
!	!	!LO:LB:g=original	!	!	!	!	!	!	!LO:LB:g=original	!
=46	=46	=46	=46	=46	=46	=46	=46	=46	=46	=46
4D\	7 #	8a/L	8cc\L	.	8F#X\	A-	8a\	A-	8cc\	A-
.	.	8f#X/J	8a\J	.	8D\	-da-	8f#X/	-da-	8a\	-da-
4G\	.	4g/	4b\	.	4G\	-mie	4g\	-mie	4b\	-mie
4r	.	4r	4r	.	4r	.	4r	.	4r	.
!LO:LB:g=original	!	!	!	!	!	!	!	!	!	!
=47	=47	=47	=47	=47	=47	=47	=47	=47	=47	=47
!	!	!	!	!LO:DY:a:t=Pia	!	!	!	!	!	!
4C/	.	4cc\	4ee\	p	4c\	a-	0.r	.	0.r	.
4F\	.	4dd\	4ff\	.	4d\	-le	.	.	.	.
4G\	.	4b\	4dd\	.	4B\	nie	.	.	.	.
!	!	!	!LO:LB:g=original	!	!	!	!	!	!	!
=48	=48	=48	=48	=48	=48	=48	=48	=48	=48	=48
2.C/	.	4cc\	4ee\	.	4c\	wez-	.	.	.	.
.	.	2cc\	2cc\	.	2G\	-mę	.	.	.	.
=49	=49	=49	=49	=49	=49	=49	=49	=49	=49	=49
4C/	.	4cc\	4ee\	.	4c\	a-	.	.	.	.
4F\	.	4dd\	4ff\	.	4d\	-le	.	.	.	.
4G\	.	4b\	4dd\	.	4B\	nie	.	.	.	.
=50	=50	=50	=50	=50	=50	=50	=50	=50	=50	=50
2.C/	.	4cc\	4ee\	.	4c\	wez-	.	.	.	.
.	.	2cc\	2cc\	.	2G\	-mę	.	.	.	.
!	!	!	!	!	!LO:LB:g=original	!	!	!	!	!
=51	=51	=51	=51	=51	=51	=51	=51	=51	=51	=51
4C/	.	2.r	4cc\	.	4c\	wo-	0.r	.	0.r	.
4r	.	.	(8b/L	.	8B\L	-lę	.	.	.	.
.	.	.	8a/	.	8A\J	.	.	.	.	.
4D\	.	.	8g/)	.	8G\L	wziąc	.	.	.	.
.	.	.	8f/J	.	8F\J	.	.	.	.	.
=52	=52	=52	=52	=52	=52	=52	=52	=52	=52	=52
4C/	.	4c/	(4e/	.	4E\	Koz-	.	.	.	.
4D\	.	4d/	4f/	.	4F\	-ląt-	.	.	.	.
4E\	.	4e/	4g/)	.	4G\	-ko	.	.	.	.
=53	=53	=53	=53	=53	=53	=53	=53	=53	=53	=53
4F\	.	4f/	4a/	.	4A\	bo	.	.	.	.
4r	.	4g/	4b/	.	4B\	Kie-	.	.	.	.
4G\	.	4g/	4g/	.	4G\	-dy	.	.	.	.
=54	=54	=54	=54	=54	=54	=54	=54	=54	=54	=54
4C/	.	4e/	4cc\	.	4c\	be-	.	.	.	.
2C/	.	2e/	2cc\	.	2c\	-Knie	.	.	.	.
=55	=55	=55	=55	=55	=55	=55	=55	=55	=55	=55
4F\	6	4f/	4dd\	.	4d\	wez-	0.r	.	0.r	.
4G\	.	4e/	4cc\	.	4c\	-nie	.	.	.	.
4GG/	.	4d/	4b\	.	4B\	Dzie-	.	.	.	.
=56	=56	=56	=56	=56	=56	=56	=56	=56	=56	=56
4C/	.	4e/	4cc\	.	4c\	-cią-	.	.	.	.
4C/	.	4e/	4c/	.	4C/	-tko	.	.	.	.
4r	.	4r	4r	.	4r	.	.	.	.	.
=57	=57	=57	=57	=57	=57	=57	=57	=57	=57	=57
!	!	!LO:TX:t=P:problem=brakujące 8 taktów pauz, dopisek inną ręką	!	!	!	!	!	!	!	!
4F\	.	2.ryy	2f/	.	2F\	Ku-	.	.	.	.
4A\	.	.	.	.	.	.	.	.	.	.
4F\	.	.	4a/	.	4A\	-ba	.	.	.	.
!LO:LB:g=original	!	!	!LO:LB:g=original	!	!LO:LB:g=original	!	!	!	!	!
=58	=58	=58	=58	=58	=58	=58	=58	=58	=58	=58
4C/	6 4	2.ryy	4a/	.	8A\L	ma-	.	.	.	.
.	.	.	.	.	8G\J	.	.	.	.	.
4C/	3	.	4g/	.	4G\	-cieK	.	.	.	.
4r	.	.	4r	.	4r	.	.	.	.	.
=59	=59	=59	=59	=59	=59	=59	=59	=59	=59	=59
4F\	.	2.ryy	4f/	.	4F\	wez-	0.r	.	0.r	.
4G\	.	.	4e/	.	4E\	-mą	.	.	.	.
4GG/	.	.	4d/	.	4D\	fu-	.	.	.	.
=60	=60	=60	=60	=60	=60	=60	=60	=60	=60	=60
4C/	.	2.ryy	4e/	.	4E\	-ja-	.	.	.	.
4C/	.	.	4c/	.	4C/	-rę	.	.	.	.
4r	.	.	4r	.	4r	.	.	.	.	.
=61	=61	=61	=61	=61	=61	=61	=61	=61	=61	=61
4GG/	.	2.ryy	(4g/	.	4G\	y	.	.	.	.
4BB/	.	.	4b\	.	4B\	du-	.	.	.	.
4GG/	.	.	4dd\)	.	4G\	-dac	.	.	.	.
=62	=62	=62	=62	=62	=62	=62	=62	=62	=62	=62
4C/	.	2.ryy	4cc\	.	4c\	bę-	.	.	.	.
4E/	.	.	2cc\	.	2c\	-dą	.	.	.	.
4C/	.	.	.	.	.	.	.	.	.	.
=63	=63	=63	=63	=63	=63	=63	=63	=63	=63	=63
4D\	6	2.ryy	2dd\	.	2d\	na	0.r	.	0.r	.
4BB/	.	.	.	.	.	.	.	.	.	.
4GG/	.	.	4b\	.	4B\	o-	.	.	.	.
=64	=64	=64	=64	=64	=64	=64	=64	=64	=64	=64
4C/	.	2.ryy	4cc\	.	4c\	-fia-	.	.	.	.
4C/	.	.	4c/	.	4C/	-rę	.	.	.	.
4r	.	.	4r	.	4r	.	.	.	.	.
=65	=65	=65	=65	=65	=65	=65	=65	=65	=65	=65
4G\	.	4g/	4g/	.	4G\	y	.	.	.	.
4B\	.	4g/	4b\	.	4B\	du-	.	.	.	.
4G\	.	4g/	4dd\	.	4G\	-dac	.	.	.	.
!	!	!	!	!	!LO:LB:g=original	!	!	!	!	!
=66	=66	=66	=66	=66	=66	=66	=66	=66	=66	=66
4C/	.	4e/	4cc\	.	4c\	bę-	.	.	.	.
4E/	.	2e/	2cc\	.	2c\	-dą	.	.	.	.
4C/	.	.	.	.	.	.	.	.	.	.
=67	=67	=67	=67	=67	=67	=67	=67	=67	=67	=67
4D/	6	2f/	2dd\	.	2d\	na	1.r	.	1.r	.
4BB/	.	.	.	.	.	.	.	.	.	.
4GG/	.	4d/	4b\	.	4B\	o-	.	.	.	.
!LO:LB:g=original	!	!	!	!	!	!	!	!	!	!
=68	=68	=68	=68	=68	=68	=68	=68	=68	=68	=68
4C/	.	4e/	4cc\	.	4c\	-fia-	.	.	.	.
4C/	.	4e/	4c/	.	4C/	-rę	.	.	.	.
4r	.	4r	4r	.	4r	.	.	.	.	.
!	!	!	!LO:LB:g=original	!	!	!	!	!	!	!
=69	=69	=69	=69	=69	=69	=69	=69	=69	=69	=69
!	!	!	!	!LO:DY:a:t=f.	!	!	!	!	!	!
4C/	.	4cc\	4cc\	f	4C/	a	4cc\	A	4cc\	a
4E\	.	4cc\	(8ee\L	.	4E\	woy-	4ee\	woy-	8ee\L	woy-
.	.	.	8cc\	.	.	.	.	.	8cc\J	.
4C/	.	8cc\L	8ee\)	.	4C/	-tek	4cc\	-teK	8ee\L	teK
.	.	8ee\J	8gg\J	.	.	.	.	.	8cc\J	.
=70	=70	=70	=70	=70	=70	=70	=70	=70	=70	=70
4G\	.	4dd\	4ff\	.	4G\	y	4dd\	y	4ff\	y
4GG/	.	8b\L	(8dd\L	.	4G\	Ba-	4b\	Ba-	4dd\	ba-
.	.	8g\J	8b\	.	.	.	.	.	.	.
4C/	.	4cc\	8cc\)	.	8E\L	-neK	4cc\	-nek	4ee\	-nek
.	.	.	8ee\J	.	8C\J	.	.	.	.	.
!	!	!	!	!	!	!	!LO:LB:g=original	!	!	!
=71	=71	=71	=71	=71	=71	=71	=71	=71	=71	=71
4C/	.	4cc\	4cc\	.	4C/	o-	4cc\	o-	4cc\	o-
4E/	.	4cc\	(8ee\L	.	4E\	-two-	4ee\	-two-	4ee\	-two-
.	.	.	8cc\	.	.	.	.	.	.	.
4C/	.	8cc\L	8ee\)	.	4C/	-rzą	4cc\	-rzą	4ee\	-rzą
.	.	8ee\J	8gg\J	.	.	.	.	.	.	.
=72	=72	=72	=72	=72	=72	=72	=72	=72	=72	=72
4G\	.	8dd\L	8ff\L	.	8G\	do	8dd\	do	8ff\	do
.	.	8b\J	8dd\J	.	8G\	bu-	8b\	bu-	8dd\	bu-
2C/	.	2cc\	2ee\	.	2C/	-dy	2cc\	-dy	2ee\	-dy
!	!	!	!	!	!	!	!	!	!LO:LB:g=original	!
=73	=73	=73	=73	=73	=73	=73	=73	=73	=73	=73
4C/	.	4cc\	4cc\	.	4C\	grze-	4cc\	grze-	4cc\	grze-
4E/	.	4cc\	(8ee\L	.	4E\	-la	4ee\	-la	8ee\L	-la-
.	.	.	8cc\	.	.	.	.	.	8cc\J	.
4C/	.	8cc\L	8ee\)	.	4C/	zaſ	4cc\	zaſ	4ee\	-zas
.	.	8ee\J	8gg\J	.	.	.	.	.	.	.
!	!	!LO:LB:g=original	!	!	!LO:LB:g=original	!	!	!	!	!
=74	=74	=74	=74	=74	=74	=74	=74	=74	=74	=74
2.G\	.	4dd\	4ff\	.	4G\	y	4dd\	y	4ff\	y
.	.	8b\L	(8dd\L	.	4G\	Ja-	4b\	Ja-	4dd\	Ja-
.	.	8g\J	8b\	.	.	.	.	.	.	.
.	.	4cc\	8cc\)	.	4G\	-ros	4cc\	-ros	4ee\	-ros
.	.	.	8ee\J	.	.	.	.	.	.	.
=75	=75	=75	=75	=75	=75	=75	=75	=75	=75	=75
4C/	.	4cc\	4cc\	.	4C/	po-	4cc\	po-	4cc\	po-
4E/	.	4cc\	(8ee\L	.	4E/	-bieg-	4ee\	-bieg-	4ee\	-bieg-
.	.	.	8cc\	.	.	.	.	.	.	.
4C/	.	8cc\L	8ee\)	.	4C/	-ną	4cc\	-ną	4ee\	-ną
.	.	8ee\J	8gg\J	.	.	.	.	.	.	.
=76	=76	=76	=76	=76	=76	=76	=76	=76	=76	=76
4G\	.	8dd\L	8ff\L	.	8G\	po	8dd\	po	8ff\	po
.	.	8b\J	8dd\J	.	8G\	du-	8b\	du-	8dd\	du-
2C/	.	2cc\	2ee\	.	2C/	-dy	2cc\	-dy	2ee\	-dy
!	!	!	!LO:LB:g=original	!	!	!	!LO:LB:g=original	!	!	!
=77	=77	=77	=77	=77	=77	=77	=77	=77	=77	=77
2.C/	.	4ee\	4ccc\	.	2.r	.	4e/	za-	4cc\	za-
.	.	8ff\L	8ddd\L	.	.	.	8f/L	-gra-	(8dd\L	-gra-
.	.	8dd\J	8bb\J	.	.	.	8d/J	.	8b\J)	.
.	.	4ee\	4ccc\	.	.	.	4e/	-ią	4cc\	-ią
=78	=78	=78	=78	=78	=78	=78	=78	=78	=78	=78
4G\	.	4dd\	4ff\	.	4G\	za-	4dd\	Ko-	4ff\	Ko-
4GG/	.	8cc\L	8ee\L	.	4G\	-gra-	8cc\L	-za-	8ee\L	-za-
.	.	8b\J	8dd\J	.	.	.	8b\J	.	8dd\J	.
4C/	.	4cc\	4ee\	.	8E\L	-ią	4cc\	-Ka	4ee\	-Ka
.	.	.	.	.	8C\J	.	.	.	.	.
!LO:LB:g=original	!	!	!	!	!	!	!	!	!LO:LB:g=original	!
=79	=79	=79	=79	=79	=79	=79	=79	=79	=79	=79
2.C/	.	4ee\	4ccc\	.	2.r	.	4e/	dla	4cc\	dla
.	.	8ff\L	8ddd\L	.	.	.	8f/L	o-	(8dd\L	o-
.	.	8dd\J	8bb\J	.	.	.	8d/J	.	8b\J)	.
.	.	4ee\	4ccc\	.	.	.	4e/	-cho-	4cc\	-cho-
=80	=80	=80	=80	=80	=80	=80	=80	=80	=80	=80
4G\	.	4dd\	4ff\	.	4G\	Ko-	4dd\	-ty	4ff\	-ty
4GG/	.	8cc\L	8ee\L	.	4G\	-za-	8cc\L	w	(8ee\L	w_szo-
.	.	8b\J	8dd\J	.	.	.	8b\J	ſzo-	8dd\J)	.
4C/	.	4cc\	4ee\	.	8E\L	-Ka	4cc\	-pie	4ee\	-pie
.	.	.	.	.	8C\J	.	.	.	.	.
=81	=81	=81	=81	=81	=81	=81	=81	=81	=81	=81
2.C/	.	4ee\	4ccc\	.	2.r	.	4e/	a	4cc\	y
.	.	8ff\L	8ddd\L	.	.	.	8f/L	Ko-	8dd\L	Ko-
.	.	8dd\J	8bb\J	.	.	.	8d/J	.	8b\J	.
.	.	4ee\	4ccc\	.	.	.	4e/	-zaK	4cc\	-zak
!	!	!LO:LB:g=original	!	!	!	!	!LO:LB:g=original	!	!	!
=82	=82	=82	=82	=82	=82	=82	=82	=82	=82	=82
4G\	.	4dd\	4ff\	.	4G\	Ko-	4dd\	za-	4ff\	za-
4GG/	.	8cc\L	8ee\L	.	8G\L	-za-	8cc\L	-spie-	8ee\L	-spie-
.	.	8b\J	8dd\J	.	8E\J	.	8b\J	.	8dd\J	.
4C/	.	4cc\	4ee\	.	4C/	-Ka	4cc\	-wa	4ee\	-wa
!	!	!	!	!	!LO:LB:g=original	!	!	!	!	!
=83	=83	=83	=83	=83	=83	=83	=83	=83	=83	=83
!	!	!	!	!	!LO:TX:t=1	!	!	!	!	!
2.C/	.	0.r	0.r	.	2.r	.	4e/	ty	4cc\	ty
.	.	.	.	.	.	.	8f/L	prze-	8dd\L	prze-
.	.	.	.	.	.	.	8d/J	.	8b\J	.
.	.	.	.	.	.	.	4e/	-sta-	4cc\	-sta-
=84	=84	=84	=84	=84	=84	=84	=84	=84	=84	=84
4G\	.	.	.	.	4G\	ty	4dd\	-nieſz	4ff\	-nieſz
4GG/	.	.	.	.	8G\L	chło-	8cc\L	chło-	8ee\L	Chło-
.	.	.	.	.	8E\J	.	8b\J	.	8dd\J	.
4C/	.	.	.	.	4C/	-pie	4cc\	-pie	4ee\	-pie
!	!	!	!	!	!	!	!	!	!LO:LB:g=original	!
=85	=85	=85	=85	=85	=85	=85	=85	=85	=85	=85
2.C/	.	.	.	.	2.r	.	4e/	ty	4cc\	ty
.	.	.	.	.	.	.	8f/L	prze-	8dd\L	prze-
.	.	.	.	.	.	.	8d/J	.	8b\J	.
.	.	.	.	.	.	.	4e/	-sta-	4cc\	-sta-
=86	=86	=86	=86	=86	=86	=86	=86	=86	=86	=86
4G\	.	.	.	.	4G\	ty	4dd\	-nieſz	4ff\	-nieſz
4GG/	.	.	.	.	8G\L	chło-	8cc\L	chło-	8ee\L	chło-
.	.	.	.	.	8E\J	.	8b\J	.	8dd\J	-pie
4C/	.	.	.	.	4C/	-pie	4cc\	-pie	4ee\	.
!	!	!	!	!	!	!	!LO:LB:g=original	!	!	!
=87	=87	=87	=87	=87	=87	=87	=87	=87	=87	=87
!	!	!	!	!LO:DY:a:t=f.	!	!	!	!	!	!
4C/	.	4cc\	4cc\	f	0.r	.	0.r	.	0.r	.
4E/	.	4cc\	4ee\	.	.	.	.	.	.	.
4C/	.	4ee\	4gg\	.	.	.	.	.	.	.
=88	=88	=88	=88	=88	=88	=88	=88	=88	=88	=88
4G\	.	4dd\	4ff\	.	.	.	.	.	.	.
4GG/	.	8b\L	8dd\L	.	.	.	.	.	.	.
.	.	8g\J	8b\J	.	.	.	.	.	.	.
4C/	.	4e/	4cc\	.	.	.	.	.	.	.
=89	=89	=89	=89	=89	=89	=89	=89	=89	=89	=89
4C/	.	4cc\	4cc\	.	.	.	.	.	.	.
4E/	.	4cc\	4ee\	.	.	.	.	.	.	.
4C/	.	4ee\	4gg\	.	.	.	.	.	.	.
=90	=90	=90	=90	=90	=90	=90	=90	=90	=90	=90
2.C/	.	8dd\L	8ff\L	.	.	.	.	.	.	.
.	.	8b\J	8dd\J	.	.	.	.	.	.	.
.	.	2cc\	2ee\	.	.	.	.	.	.	.
!LO:LB:g=original	!	!	!	!	!	!	!	!	!	!
=91	=91	=91	=91	=91	=91	=91	=91	=91	=91	=91
4C/	.	4cc\	4cc\	.	0.r	.	0.r	.	0.r	.
4E/	.	4cc\	4ee\	.	.	.	.	.	.	.
4C/	.	4ee\	4gg\	.	.	.	.	.	.	.
!	!	!	!LO:LB:g=original	!	!	!	!	!	!	!
=92	=92	=92	=92	=92	=92	=92	=92	=92	=92	=92
4G\	.	4dd\	4ff\	.	.	.	.	.	.	.
4GG/	.	8b\L	8dd\L	.	.	.	.	.	.	.
.	.	8g\J	8b\J	.	.	.	.	.	.	.
4C/	.	4e/	4cc\	.	.	.	.	.	.	.
=93	=93	=93	=93	=93	=93	=93	=93	=93	=93	=93
4C/	.	4cc\	4cc\	.	.	.	.	.	.	.
4E/	.	4cc\	4ee\	.	.	.	.	.	.	.
4C/	.	4ee\	4gg\	.	.	.	.	.	.	.
=94	=94	=94	=94	=94	=94	=94	=94	=94	=94	=94
2.C/	.	8dd\L	8ff\L	.	.	.	.	.	.	.
.	.	8b\J	8dd\J	.	.	.	.	.	.	.
.	.	2cc\	2ee\	.	.	.	.	.	.	.
!	!	!LO:LB:g=original	!	!	!	!	!	!	!	!
=95	=95	=95	=95	=95	=95	=95	=95	=95	=95	=95
4C\	.	(8ee\L	8gg\L	.	0.r	.	0.r	.	0.r	.
.	.	8aa\	8ccc\	.	.	.	.	.	.	.
4F\	.	8gg\	8bb\	.	.	.	.	.	.	.
.	.	8ff\)	8aa\	.	.	.	.	.	.	.
4G\	.	8ee\	8gg\	.	.	.	.	.	.	.
.	.	8dd\J	8ff\J	.	.	.	.	.	.	.
=96	=96	=96	=96	=96	=96	=96	=96	=96	=96	=96
4C/	.	4cc\	4ee\	.	.	.	.	.	.	.
4D/	.	4dd\	4ff\	.	.	.	.	.	.	.
4E\	.	4ee\	4gg\	.	.	.	.	.	.	.
=97	=97	=97	=97	=97	=97	=97	=97	=97	=97	=97
4F\	.	4ff\	8aa\L	.	.	.	.	.	.	.
.	.	.	8ff\J	.	.	.	.	.	.	.
4G\	.	4cc\	4ee\	.	.	.	.	.	.	.
4GG/	.	4b\	4dd\	.	.	.	.	.	.	.
=98	=98	=98	=98	=98	=98	=98	=98	=98	=98	=98
4C/	.	4cc\	4cc\	.	.	.	.	.	.	.
4CC/	.	4c/	4c/	.	.	.	.	.	.	.
!	!	!	!LO:TX:b:t=Vertat.	!	!	!	!	!	!	!
4r	.	4r	4r	.	.	.	.	.	.	.
==	==	==	==	==	==	==	==	==	==	==
*-	*-	*-	*-	*-	*-	*-	*-	*-	*-	*-
!!!system-decoration: [(s1,s2,s3)][(s4,s5)]s6
!!!ENC: Kamil Watkowski
!!!END: 2020-12-09
!!!EED: Andrzej Borzym
!!!EEV: 2022-01-09
!!!YEC: Copyright 2022 Narodowy Instytut Fryderyka Chopina (https://polishscores.org)
!!!YEM: Licence CC BY 4.0 (https://creativecommons.org/licenses/by/4.0)
